dist/assets/images/ig.svg

<svg width="28" height="28" viewBox="0 0 28 28" fill="none" xmlns="http://www.w3.org/2000/svg">
<path d="M8.40033 0.666626H19.6003C23.867 0.666626 27.3337 4.13329 27.3337 8.39996V19.6C27.3337 21.651 26.5189 23.618 25.0686 25.0683C23.6183 26.5185 21.6513 27.3333 19.6003 27.3333H8.40033C4.13366 27.3333 0.666992 23.8666 0.666992 19.6V8.39996C0.666992 6.34895 1.48175 4.38195 2.93203 2.93167C4.38231 1.48139 6.34932 0.666626 8.40033 0.666626ZM8.13366 3.33329C6.86062 3.33329 5.63972 3.83901 4.73955 4.73918C3.83937 5.63935 3.33366 6.86025 3.33366 8.13329V19.8666C3.33366 22.52 5.48033 24.6666 8.13366 24.6666H19.867C21.14 24.6666 22.3609 24.1609 23.2611 23.2607C24.1613 22.3606 24.667 21.1397 24.667 19.8666V8.13329C24.667 5.47996 22.5203 3.33329 19.867 3.33329H8.13366ZM21.0003 5.33329C21.4424 5.33329 21.8663 5.50889 22.1788 5.82145C22.4914 6.13401 22.667 6.55793 22.667 6.99996C22.667 7.44199 22.4914 7.86591 22.1788 8.17847C21.8663 8.49103 21.4424 8.66663 21.0003 8.66663C20.5583 8.66663 20.1344 8.49103 19.8218 8.17847C19.5093 7.86591 19.3337 7.44199 19.3337 6.99996C19.3337 6.55793 19.5093 6.13401 19.8218 5.82145C20.1344 5.50889 20.5583 5.33329 21.0003 5.33329ZM14.0003 7.33329C15.7684 7.33329 17.4641 8.03567 18.7144 9.28591C19.9646 10.5362 20.667 12.2318 20.667 14C20.667 15.7681 19.9646 17.4638 18.7144 18.714C17.4641 19.9642 15.7684 20.6666 14.0003 20.6666C12.2322 20.6666 10.5365 19.9642 9.28628 18.714C8.03604 17.4638 7.33366 15.7681 7.33366 14C7.33366 12.2318 8.03604 10.5362 9.28628 9.28591C10.5365 8.03567 12.2322 7.33329 14.0003 7.33329ZM14.0003 9.99996C12.9395 9.99996 11.922 10.4214 11.1719 11.1715C10.4218 11.9217 10.0003 12.9391 10.0003 14C10.0003 15.0608 10.4218 16.0782 11.1719 16.8284C11.922 17.5785 12.9395 18 14.0003 18C15.0612 18 16.0786 17.5785 16.8288 16.8284C17.5789 16.0782 18.0003 15.0608 18.0003 14C18.0003 12.9391 17.5789 11.9217 16.8288 11.1715C16.0786 10.4214 15.0612 9.99996 14.0003 9.99996Z" fill="white"/>
</svg>

<svg width="28" height="28" fill="none" xmlns="http://www.w3.org/2000/svg"><path d="M8.4.667h11.2A7.739 7.739 0 0 1 27.334 8.4v11.2a7.733 7.733 0 0 1-7.734 7.733H8.4A7.739 7.739 0 0 1 .667 19.6V8.4A7.733 7.733 0 0 1 8.4.667Zm-.266 2.666a4.8 4.8 0 0 0-4.8 4.8v11.734c0 2.653 2.146 4.8 4.8 4.8h11.733a4.8 4.8 0 0 0 4.8-4.8V8.133c0-2.653-2.147-4.8-4.8-4.8H8.134Zm12.866 2a1.666 1.666 0 1 1 0 3.333 1.666 1.666 0 0 1 0-3.333Zm-7 2a6.667 6.667 0 1 1 0 13.334 6.667 6.667 0 0 1 0-13.334ZM14 10a4 4 0 1 0 0 8 4 4 0 0 0 0-8Z" fill="#fff"/></svg>
